X: 72
T: Exaltabo te domine
N: Derived from Mar2047-Exaltabo_te_domine.krn
C: Johannes Martini
%%abc-version 2.0
%%abcx-abcm2ps-target-version 5.9.1 (29 Sep 2008)
%%abc-creator hum2abc beta
%%abcx-conversion-date 2019/02/17 07:19:42
%%abc-edited-by Jesse Rodin
%%abc-edited-by Chris Gage 03-26-2014
%%abcx-initial-encoding-date 2014/10/09/
%%humdrum-veritas 1848963590
%%humdrum-veritas-data 1462455932
%%linebreak <none>
%%barnumbers 0
L: 1/4
M: 4/2
Q: 1/2=120
V: 1 clef=treble
V: 2 clef=treble-8
V: 3 clef=treble-8
K: C
[V:1] c4c2c2 | 
[V:2] g4g2g2 | 
[V:3] e4e2e2 | 
[V:1] c4c4 | 
[V:2] g4g4 | 
[V:3] e4e4 | 
[V:1] c4c2c2 | 
[V:2] g4g2g2 | 
[V:3] e4e2e2 | 
[V:1] c4B4 | 
[V:2] g4f4 | 
[V:3] e4d4 | 
[V:1] A2c4BA | 
[V:2] e2g4fe | 
[V:3] c2e4dc | 
[V:1] G2A4G2- | 
[V:2] d2e4d2- | 
[V:3] B2A4B2 | 
[V:1] G2^F2G4 ||  
[V:2] d2c2d4 ||  
[V:3] A4G4 ||  
[V:1] c2c2c4 | 
[V:2] z8 | 
[V:3] e2e2e4 | 
[V:1] c2c2c2c2- | 
[V:2] z8 | 
[V:3] e2e2e2e2- | 
[V:1] c2c2B2A2 | 
[V:2] z8 | 
[V:3] e2e2d2c2 | 
[V:1] B4c4 | 
[V:2] z8 | 
[V:3] d4c4 | 
[V:1] z4c4 | 
[V:2] z8 | 
[V:3] z4e4 | 
[V:1] B2c4BA | 
[V:2] z8 | 
[V:3] d2e4dc | 
[V:1] G2A4G2- | 
[V:2] z8 | 
[V:3] B2c4B2 | 
[V:1] G2^F2G4 ||  
[V:2] z8 ||  
[V:3] A4G4 ||  
[V:1] c2c2c2c2 | 
[V:2] g2g2g2g2 | 
[V:3] e2e2e2e2 | 
[V:1] c2c2c4 | 
[V:2] g2g2g4 | 
[V:3] e2e2e4 | 
[V:1] c4c4 | 
[V:2] g4g4 | 
[V:3] e4e4 | 
[V:1] c4c4 | 
[V:2] g4g4 | 
[V:3] e4e4 | 
[V:1] B2A2G2c2- | 
[V:2] f2e2d2g2- | 
[V:3] d2c2B2c2 | 
[V:1] c2B2c4 | 
[V:2] g2f2g4 | 
[V:3] d4c4 | 
[V:1] z4c4 | 
[V:2] z4g4 | 
[V:3] z4e4 | 
[V:1] c2c2c4 | 
[V:2] g2g2g4 | 
[V:3] e2e2e4 | 
[V:1] c6c2 | 
[V:2] g6g2 | 
[V:3] e6e2 | 
[V:1] c2c2c4 | 
[V:2] g2g2g4 | 
[V:3] e2e2e4 | 
[V:1] B6c2- | 
[V:2] f6g2- | 
[V:3] d6e2- | 
[V:1] c2BAG2A2- | 
[V:2] g2fed2e2- | 
[V:3] e2dcB2c2- | 
[V:1] A2G4^F2 | 
[V:2] e2d4c2 | 
[V:3] c2B2A4 | 
[V:1] G8 ||  
[V:2] d8 ||  
[V:3] G8 ||  
[V:1] c4c2c2 | 
[V:2] z8 | 
[V:3] e4e2e2 | 
[V:1] c2c2c4 | 
[V:2] z8 | 
[V:3] e2e2e4 | 
[V:1] B2A2B4 | 
[V:2] z8 | 
[V:3] d2c2d4 | 
[V:1] c4z4 | 
[V:2] z8 | 
[V:3] c4z4 | 
[V:1] c4c2c2 | 
[V:2] z8 | 
[V:3] e4e2e2 | 
[V:1] c2c2c4 | 
[V:2] z8 | 
[V:3] e2e2e4 | 
[V:1] c4c2c2 | 
[V:2] z8 | 
[V:3] e4e2e2 | 
[V:1] c4B4 | 
[V:2] z8 | 
[V:3] e4d4 | 
[V:1] A2c2B2A2- | 
[V:2] z8 | 
[V:3] c2e2d2c2- | 
[V:1] A2G4^F2 | 
[V:2] z8 | 
[V:3] c2B2A4 | 
[V:1] G8 ||  
[V:2] z8 ||  
[V:3] G8 ||  
[V:1] c2c2c4 | 
[V:2] g2g2g4 | 
[V:3] e2e2e4 | 
[V:1] c4c4 | 
[V:2] g4g4 | 
[V:3] e4e4 | 
[V:1] c4c2c2 | 
[V:2] g4g2g2 | 
[V:3] e4e2e2 | 
[V:1] c2c2c4- | 
[V:2] g2g2g4- | 
[V:3] e2e2c4 | 
[V:1] c2d4c2- | 
[V:2] g2a4g2- | 
[V:3] e2f4e2 | 
[V:1] c2B2c4 | 
[V:2] g2f2g4 | 
[V:3] d4c4 | 
[V:1] z4c4 | 
[V:2] z4g4 | 
[V:3] z4c4 | 
[V:1] c4c4 | 
[V:2] g4g4 | 
[V:3] e4e4 | 
[V:1] B4A2c2 | 
[V:2] f4e2g2 | 
[V:3] d4c2e2 | 
[V:1] B2A4G2- | 
[V:2] f2e4d2- | 
[V:3] d2c4B2 | 
[V:1] GE^F2G4 ||  
[V:2] dBc2d4 ||  
[V:3] A4G4 ||  
[V:1] c4c2c2 | 
[V:2] z8 | 
[V:3] e4e2e2 | 
[V:1] c4c2c2 | 
[V:2] z8 | 
[V:3] e4e2e2 | 
[V:1] c2c2c4 | 
[V:2] z8 | 
[V:3] e2e2e4 | 
[V:1] d4c4 | 
[V:2] z8 | 
[V:3] f4c4 | 
[V:1] z4c4 | 
[V:2] z8 | 
[V:3] z4e4 | 
[V:1] c2c2c2c2 | 
[V:2] z8 | 
[V:3] e2e2e2e2 | 
[V:1] c4B2A2- | 
[V:2] z8 | 
[V:3] e4d2c2- | 
[V:1] A2G4^F2 | 
[V:2] z8 | 
[V:3] c2B2A4 | 
[V:1] G8 ||  
[V:2] z8 ||  
[V:3] G8 ||  
[V:1] c4c2c2 | 
[V:2] g4g2g2 | 
[V:3] e4e2e2 | 
[V:1] c2c2c4 | 
[V:2] g2g2g4 | 
[V:3] e2e2c4 | 
[V:1] c4c2c2 | 
[V:2] g4g2g2 | 
[V:3] e4e2e2 | 
[V:1] c2c2c4- | 
[V:2] g2g2g4- | 
[V:3] e2e2e4- | 
[V:1] c2d4c2- | 
[V:2] g2a4g2- | 
[V:3] e2f4e2 | 
[V:1] c2B2c4 | 
[V:2] g2f2g4 | 
[V:3] d4c4 | 
[V:1] z4c4 | 
[V:2] z4g4 | 
[V:3] z4e4 | 
[V:1] c2c2c4 | 
[V:2] g2g2g4 | 
[V:3] e2e2e4 | 
[V:1] B3AB2c2- | 
[V:2] f3ef2g2- | 
[V:3] d3cd2e2- | 
[V:1] c2BAG2A2- | 
[V:2] g2fed2e2- | 
[V:3] e2dcB2c2- | 
[V:1] A2G4^F2 | 
[V:2] e2d4c2 | 
[V:3] c2B2A4 | 
[V:1] G8 ||  
[V:2] d8 ||  
[V:3] G8 ||  
[V:1] c2c2c4 | 
[V:2] z8 | 
[V:3] e2e2e4 | 
[V:1] c4c2c2 | 
[V:2] z8 | 
[V:3] e4e2e2 | 
[V:1] c4c2d2- | 
[V:2] z8 | 
[V:3] e4e2f2- | 
[V:1] dcBAB4 | 
[V:2] z8 | 
[V:3] fedcd4 | 
[V:1] c4z4 | 
[V:2] z8 | 
[V:3] c4z4 | 
[V:1] c2c2c4 | 
[V:2] z8 | 
[V:3] e2e2e4 | 
[V:1] c4B4 | 
[V:2] z8 | 
[V:3] e4d4 | 
[V:1] A2c2B2A2- | 
[V:2] z8 | 
[V:3] c2e2d2c2- | 
[V:1] A2G4^F2 | 
[V:2] z8 | 
[V:3] c2B2A4 | 
[V:1] G8 ||  
[V:2] z8 ||  
[V:3] G8 ||  
[V:1] c2c2c4 | 
[V:2] g2g2g4 | 
[V:3] e2e2e4 | 
[V:1] c4c2c2 | 
[V:2] g4g2g2 | 
[V:3] e4e2e2 | 
[V:1] c4B4 | 
[V:2] g4f4 | 
[V:3] e4d4 | 
[V:1] c2d4c2- | 
[V:2] g2a4g2- | 
[V:3] e2f4e2 | 
[V:1] c2B2c4 | 
[V:2] g2f2g4 | 
[V:3] d4c4 | 
[V:1] z4c4 | 
[V:2] z4g4 | 
[V:3] z4e4 | 
[V:1] c2c2c4 | 
[V:2] g2g2g4 | 
[V:3] e2e2e4 | 
[V:1] B3AB2c2- | 
[V:2] f3ef2g2- | 
[V:3] d3cd2e2- | 
[V:1] c2BAG2A2- | 
[V:2] g2fed2e2- | 
[V:3] e2dcB2c2- | 
[V:1] A2G4^F2 | 
[V:2] e2d4c2 | 
[V:3] c2B2A4 | 
[V:1] G8 ||  
[V:2] d8 ||  
[V:3] G8 ||  
[V:1] c4c4 | 
[V:2] z8 | 
[V:3] e4e4 | 
[V:1] c2c2c4 | 
[V:2] z8 | 
[V:3] e2e2e4 | 
[V:1] c2d4c2- | 
[V:2] z8 | 
[V:3] e2f4e2 | 
[V:1] c2B2c4 | 
[V:2] z8 | 
[V:3] d4c4 | 
[V:1] z4c4 | 
[V:2] z8 | 
[V:3] z4e4 | 
[V:1] c4c2c2 | 
[V:2] z8 | 
[V:3] e4e2e2 | 
[V:1] c4B4 | 
[V:2] z8 | 
[V:3] e4d4 | 
[V:1] A3GA2B2- | 
[V:2] z8 | 
[V:3] c3Bc2d2- | 
[V:1] B2AG^F2G2- | 
[V:2] z8 | 
[V:3] d2cBA2G2 | 
[V:1] G2^F2G4 ||  
[V:2] z8 ||  
[V:3] A4G4 ||  
[V:1] c4c4 | 
[V:2] g4g4 | 
[V:3] e4e4 | 
[V:1] c2c2c4 | 
[V:2] g2g2g4 | 
[V:3] e2e2e4 | 
[V:1] c4c2c2 | 
[V:2] g4g2g2 | 
[V:3] e4e2e2 | 
[V:1] c6d2- | 
[V:2] g6a2- | 
[V:3] e6f2- | 
[V:1] d2c4B2 | 
[V:2] a2g4f2 | 
[V:3] f2e2d4 | 
[V:1] c4z4 | 
[V:2] g4z4 | 
[V:3] c4z4 | 
[V:1] c4c2c2 | 
[V:2] g4g2g2 | 
[V:3] e4e2e2 | 
[V:1] c4B4 | 
[V:2] g4f4 | 
[V:3] e4d4 | 
[V:1] A2c4BA | 
[V:2] e2g4fe | 
[V:3] c2e4dc | 
[V:1] G2A4G2- | 
[V:2] d2e4d2- | 
[V:3] B2c4B2 | 
[V:1] G2^F2G4 ||  
[V:2] d2c2d4 ||  
[V:3] A4G4 ||  
[V:1] c4c4 | 
[V:2] z8 | 
[V:3] c4e4 | 
[V:1] c2c2c2c2 | 
[V:2] z8 | 
[V:3] e2e2e2e2 | 
[V:1] c4B4 | 
[V:2] z8 | 
[V:3] e4d4 | 
[V:1] c2d4c2- | 
[V:2] z8 | 
[V:3] e2f4e2 | 
[V:1] c2B2c4 | 
[V:2] z8 | 
[V:3] d4c4 | 
[V:1] z4c4 | 
[V:2] z8 | 
[V:3] z4e4 | 
[V:1] c2c2c2c2 | 
[V:2] z8 | 
[V:3] e2e2e2e2 | 
[V:1] c4B4 | 
[V:2] z8 | 
[V:3] e4d4 | 
[V:1] A2c4BA | 
[V:2] z8 | 
[V:3] c2e4dc | 
[V:1] G2A4G2- | 
[V:2] z8 | 
[V:3] B2c4B2 | 
[V:1] G2^F2G4 ||  
[V:2] z8 ||  
[V:3] A4G4 ||  
[V:1] c4c4 | 
[V:2] g4g4 | 
[V:3] c4e4 | 
[V:1] c4c2c2 | 
[V:2] g4g2g2 | 
[V:3] e4e2e2 | 
[V:1] c4B4 | 
[V:2] g4f4 | 
[V:3] e4d4 | 
[V:1] A2B2c2d2- | 
[V:2] e2f2g2a2- | 
[V:3] c2d2e2f2- | 
[V:1] d2c4B2 | 
[V:2] a2g4f2 | 
[V:3] f2e2d4 | 
[V:1] c4z4 | 
[V:2] g4z4 | 
[V:3] c4z4 | 
[V:1] c2c2c4 | 
[V:2] g2g2g4 | 
[V:3] e2e2e4 | 
[V:1] c2c2c4 | 
[V:2] g2g2g4 | 
[V:3] e2e2e4 | 
[V:1] B4A4- | 
[V:2] f4e4- | 
[V:3] d4c4- | 
[V:1] A2B4AG | 
[V:2] e2f4ed | 
[V:3] c2d4cB | 
[V:1] ^F2G4F2 | 
[V:2] c2d4c2 | 
[V:3] A2G2A4 | 
[V:1] G8 ||  
[V:2] d8 ||  
[V:3] G8 ||  
[V:1] c2c2c4 | 
[V:2] z8 | 
[V:3] e2e2e4 | 
[V:1] c4c4 | 
[V:2] z8 | 
[V:3] e4e4 | 
[V:1] c2c2c4 | 
[V:2] z8 | 
[V:3] e2e2e4 | 
[V:1] B4c2d2- | 
[V:2] z8 | 
[V:3] d4e2f2- | 
[V:1] d2c4B2 | 
[V:2] z8 | 
[V:3] f2e2d4 | 
[V:1] c4z4 | 
[V:2] z8 | 
[V:3] c4z4 | 
[V:1] c2c2c4 | 
[V:2] z8 | 
[V:3] e2e2e4 | 
[V:1] c4B2A2 | 
[V:2] z8 | 
[V:3] e4d2c2 | 
[V:1] B4c4 | 
[V:2] z8 | 
[V:3] d4c4 | 
[V:1] c4c4 | 
[V:2] z8 | 
[V:3] e4e4 | 
[V:1] c2c2c2c2 | 
[V:2] z8 | 
[V:3] e2e2e2e2 | 
[V:1] c4B2A2- | 
[V:2] z8 | 
[V:3] e4d2c2- | 
[V:1] A2G4^F2 | 
[V:2] z8 | 
[V:3] c2B2A4 | 
[V:1] G8 ||  
[V:2] z8 ||  
[V:3] G8 ||  
[V:1] c4c4 | 
[V:2] g4g4 | 
[V:3] e4e4 | 
[V:1] c2c2c4 | 
[V:2] g2g2g4 | 
[V:3] e2e2e4 | 
[V:1] c2c2c2c2 | 
[V:2] g2g2g2g2 | 
[V:3] e2e2e2e2 | 
[V:1] c4B4 | 
[V:2] g4f4 | 
[V:3] e4d4 | 
[V:1] c2d4c2- | 
[V:2] g2a4g2- | 
[V:3] e2f4e2 | 
[V:1] c2B2c4 | 
[V:2] g2f2g4 | 
[V:3] d4c4 | 
[V:1] z4c2c2 | 
[V:2] z4g2g2 | 
[V:3] z4e2e2 | 
[V:1] c4c2c2 | 
[V:2] g4g2g2 | 
[V:3] e4e2e2 | 
[V:1] c4c2c2 | 
[V:2] g4g2g2 | 
[V:3] e4e2e2 | 
[V:1] c2c2c4 | 
[V:2] g2g2g4 | 
[V:3] e2e2e4 | 
[V:1] B4A4 | 
[V:2] ^f4e4 | 
[V:3] d4c4 | 
[V:1] G2A2B2c2- | 
[V:2] d2e2^f2g2- | 
[V:3] B2c2d2e2- | 
[V:1] c2B4A2 | 
[V:2] g2^f4e2 | 
[V:3] e2d2c4 | 
[V:1] B8 |]  
[V:2] ^f8 |]  
[V:3] B8 |]  



